projects/icons/src/tuiIconMaestro.svg

<svg xmlns="http://www.w3.org/2000/svg" id="tuiIconMaestro" viewBox="0 0 32 32">
    <g transform="translate(3, 8)">
        <path d="M13.3333333,15.6337509 C15.5666403,14.1388225 17.037037,11.5929779 17.037037,8.7037037 C17.037037,5.81442953 15.5666403,3.26858493 13.3333333,1.77365652 C14.6574982,0.887288573 16.2498642,0.37037037 17.962963,0.37037037 C22.5653359,0.37037037 26.2962963,4.10133079 26.2962963,8.7037037 C26.2962963,13.3060766 22.5653359,17.037037 17.962963,17.037037 C16.2498642,17.037037 14.6574982,16.5201188 13.3333333,15.6337509 Z" fill="#0AADFC"></path>
        <path d="M13.3333333,1.77365652 C11.1000264,3.26858493 9.62962963,5.81442953 9.62962963,8.7037037 C9.62962963,11.5929779 11.1000264,14.1388225 13.3333333,15.6337509 C12.0091685,16.5201188 10.4168024,17.037037 8.7037037,17.037037 C4.10133079,17.037037 0.37037037,13.3060766 0.37037037,8.7037037 C0.37037037,4.10133079 4.10133079,0.37037037 8.7037037,0.37037037 C10.4168024,0.37037037 12.0091685,0.887288573 13.3333333,1.77365652 Z" fill="#F03727"></path>
        <path d="M13.3333333,1.77365652 C15.5666403,3.26858493 17.037037,5.81442953 17.037037,8.7037037 C17.037037,11.5929779 15.5666403,14.1388225 13.3333333,15.6337509 C11.1000264,14.1388225 9.62962963,11.5929779 9.62962963,8.7037037 C9.62962963,5.81442953 11.1000264,3.26858493 13.3333333,1.77365652 Z" fill="#726ECC"></path>
    </g>
</svg>

<svg xmlns="http://www.w3.org/2000/svg" id="tuiIconMaestro" viewBox="0 0 32 32"><path fill="#0AADFC" d="M13.333 15.634a8.325 8.325 0 003.704-6.93c0-2.89-1.47-5.435-3.704-6.93a8.333 8.333 0 110 13.86z" transform="translate(3 8)"/><path fill="#F03727" d="M13.333 1.774a8.325 8.325 0 00-3.703 6.93 8.326 8.326 0 003.703 6.93 8.333 8.333 0 110-13.86z" transform="translate(3 8)"/><path fill="#726ECC" d="M13.333 1.774a8.325 8.325 0 013.704 6.93 8.324 8.324 0 01-3.704 6.93 8.325 8.325 0 01-3.703-6.93c0-2.89 1.47-5.435 3.703-6.93z" transform="translate(3 8)"/></svg>
